packages/foundations/assets/icons/functional/images/devices/telephone_12_filled.svg

<svg width="12" height="12" viewBox="0 0 12 12" fill="none" xmlns="http://www.w3.org/2000/svg">
<g clip-path="url(#clip0_2204_2757)">
<path fill-rule="evenodd" clip-rule="evenodd" d="M1.42505 4.04691C1.42505 6.71023 5.30758 10.6282 7.92355 10.6282C9.13094 10.6282 10.575 9.45635 10.575 8.37924C10.575 8.05965 10.4685 7.74005 10.2199 7.49145L9.37948 6.63918C9.1901 6.4498 8.9652 6.35511 8.72847 6.35511C8.46805 6.35511 8.20762 6.46162 8.01824 6.651L7.15415 7.51515C6.14802 6.71022 5.46149 5.98817 4.49083 4.88729L5.35492 4.01138C5.5443 3.822 5.65087 3.56157 5.65087 3.30115C5.65087 3.08813 5.57982 2.86322 5.42597 2.69748L4.55 1.75052C4.28963 1.47828 3.97004 1.37177 3.62674 1.37177C2.58509 1.37177 1.42505 2.80399 1.42505 4.04691Z" fill="#1A1C1F"/>
</g>
<defs>
<clipPath id="clip0_2204_2757">
<rect width="12" height="12" fill="white"/>
</clipPath>
</defs>
</svg>

<svg xmlns="http://www.w3.org/2000/svg" width="12" height="12" fill="none"><g clip-path="url(#a)"><path fill="#1A1C1F" fill-rule="evenodd" d="M1.425 4.047c0 2.663 3.883 6.581 6.499 6.581 1.207 0 2.651-1.172 2.651-2.249 0-.32-.106-.639-.355-.888l-.84-.852a.9.9 0 0 0-.652-.284c-.26 0-.52.107-.71.296l-.864.864C6.148 6.71 5.461 5.988 4.491 4.887l.864-.876c.19-.189.296-.45.296-.71a.9.9 0 0 0-.225-.604l-.876-.946a1.22 1.22 0 0 0-.923-.38c-1.042 0-2.202 1.433-2.202 2.676" clip-rule="evenodd"/></g><defs><clipPath id="a"><path fill="#fff" d="M0 0h12v12H0z"/></clipPath></defs></svg>
